desc: Gain !!WARNING max gain is +90dB!! Things may break, blow up or at least clip horribly!

slider1:0<-90,90,0.1>Gain (ch 1,2) (dB)

@init
cDenorm=10^-30;
gainMax = 90;
gainMin = -90;
sliderPos = 0;

@slider
slider1 < gainMin ? slider1 = gainMin;
slider1 > gainMax ? slider1 = gainMax;
levelT1 = 2 ^ ( slider1 / 6 );

@sample
s0 = spl0;
s1 = spl1;

spl0 = s0 * levelT1;
spl1 = s1 * levelT1;
